src/24x24/places/folder-gruvbox-material-blue-nextcloud.svg

<svg xmlns="http://www.w3.org/2000/svg" width="24" height="24" version="1">
 <rect style="opacity:0.2" width="20" height="12" x="2" y="9.5" rx="1" ry="1"/>
 <path style="fill:#45707a" d="M 2,17 C 2,17.554 2.446,18 3,18 H 21 C 21.554,18 22,17.554 22,17 V 6 C 22,5.446 21.554,5 21,5 H 12 C 10.5,5 10,3 8.5,3 H 3 C 2.446,3 2,3.446 2,4"/>
 <rect style="opacity:0.2" width="20" height="12" x="2" y="8.5" rx="1" ry="1"/>
 <rect style="fill:#d9e1cc" width="16" height="8" x="4" y="7" rx="1" ry="1"/>
 <rect style="fill:#7daea3" width="20" height="12" x="2" y="9" rx="1" ry="1"/>
 <path style="opacity:0.1;fill:#d9e1cc" d="M 3,3 C 2.446,3 2,3.446 2,4 V 4.5 C 2,3.946 2.446,3.5 3,3.5 H 8.5 C 10,3.5 10.5,5.5 12,5.5 H 21 C 21.554,5.5 22,5.946 22,6.5 V 6 C 22,5.446 21.554,5 21,5 H 12 C 10.5,5 10,3 8.5,3 Z"/>
 <path style="fill:#404946" d="M 17,13 A 2,2 0 0 0 15,15 2,2 0 0 0 17,17 2,2 0 0 0 19,15 2,2 0 0 0 17,13 Z M 17,14 A 1,1 0 0 1 18,15 1,1 0 0 1 17,16 1,1 0 0 1 16,15 1,1 0 0 1 17,14 Z M 7,13 A 2,2 0 0 0 5,15 2,2 0 0 0 7,17 2,2 0 0 0 9,15 2,2 0 0 0 7,13 Z M 7,14 A 1,1 0 0 1 8,15 1,1 0 0 1 7,16 1,1 0 0 1 6,15 1,1 0 0 1 7,14 Z M 12,12 A 3,3 0 0 0 9,15 3,3 0 0 0 12,18 3,3 0 0 0 15,15 3,3 0 0 0 12,12 Z M 12,13 A 2,2 0 0 1 14,15 2,2 0 0 1 12,17 2,2 0 0 1 10,15 2,2 0 0 1 12,13 Z"/>
</svg>

<?xml version="1.0" encoding="UTF-8"?>
<svg width="24" height="24" version="1" xmlns="http://www.w3.org/2000/svg">
 <rect x="2" y="9.5" width="20" height="12" rx="1" ry="1" opacity=".2"/>
 <path d="m2 17c0 0.554 0.446 1 1 1h18c0.554 0 1-0.446 1-1v-11c0-0.554-0.446-1-1-1h-9c-1.5 0-2-2-3.5-2h-5.5c-0.554 0-1 0.446-1 1" fill="#45707a"/>
 <rect x="2" y="8.5" width="20" height="12" rx="1" ry="1" opacity=".2"/>
 <rect x="4" y="7" width="16" height="8" rx="1" ry="1" fill="#d9e1cc"/>
 <rect x="2" y="9" width="20" height="12" rx="1" ry="1" fill="#7daea3"/>
 <path d="m3 3c-0.554 0-1 0.446-1 1v0.5c0-0.554 0.446-1 1-1h5.5c1.5 0 2 2 3.5 2h9c0.554 0 1 0.446 1 1v-0.5c0-0.554-0.446-1-1-1h-9c-1.5 0-2-2-3.5-2z" fill="#d9e1cc" opacity=".1"/>
 <path d="m17 13a2 2 0 0 0-2 2 2 2 0 0 0 2 2 2 2 0 0 0 2-2 2 2 0 0 0-2-2zm0 1a1 1 0 0 1 1 1 1 1 0 0 1-1 1 1 1 0 0 1-1-1 1 1 0 0 1 1-1zm-10-1a2 2 0 0 0-2 2 2 2 0 0 0 2 2 2 2 0 0 0 2-2 2 2 0 0 0-2-2zm0 1a1 1 0 0 1 1 1 1 1 0 0 1-1 1 1 1 0 0 1-1-1 1 1 0 0 1 1-1zm5-2a3 3 0 0 0-3 3 3 3 0 0 0 3 3 3 3 0 0 0 3-3 3 3 0 0 0-3-3zm0 1a2 2 0 0 1 2 2 2 2 0 0 1-2 2 2 2 0 0 1-2-2 2 2 0 0 1 2-2z" fill="#404946"/>
</svg>
